flaticon/dialogue/phone-7.svg

<svg xmlns="http://www.w3.org/2000/svg" width="32" height="32" viewBox="0 0 24 24">
    <path d="M19.417969 5C19.242188 4.824219 18.960938 4.824219 18.789062 5L.546875 23.238281C.375 23.414062.375 23.695312.546875 23.867188.632812 23.957031.746094 24 .863281 24 .976562 24 1.089844 23.957031 1.175781 23.867188L19.417969 5.628906C19.589844 5.453125 19.589844 5.171875 19.417969 5zM23.742188 18.199219C22.847656 16.511719 19.746094 14.679688 19.609375 14.601562 19.042969 14.277344 18.453125 14.175781 17.953125 14.3125 17.578125 14.417969 17.273438 14.65625 17.066406 15 16.613281 15.542969 16.050781 16.179688 15.914062 16.277344 14.859375 16.992188 14.023438 16.90625 13.113281 15.996094L12.050781 14.9375C11.878906 14.761719 11.597656 14.761719 11.421875 14.9375 11.25 15.109375 11.25 15.390625 11.421875 15.566406L12.484375 16.625C12.503906 16.644531 12.523438 16.664062 12.542969 16.683594 12.558594 16.707031 12.570312 16.730469 12.589844 16.75 12.675781 16.835938 14.683594 18.785156 17.75 19.101562 17.765625 19.105469 17.78125 19.105469 17.796875 19.105469 18.023438 19.105469 18.214844 18.933594 18.238281 18.707031 18.265625 18.460938 18.085938 18.242188 17.84375 18.21875 16.902344 18.121094 16.070312 17.84375 15.375 17.523438 15.714844 17.421875 16.0625 17.25 16.410156 17.011719 16.691406 16.824219 17.457031 15.921875 17.773438 15.542969L17.820312 15.476562C17.910156 15.316406 18.03125 15.214844 18.191406 15.171875 18.453125 15.097656 18.820312 15.175781 19.164062 15.371094 20 15.859375 22.3125 17.398438 22.957031 18.617188 23.226562 19.125 23.132812 19.742188 22.726562 20.148438L21.597656 21.277344C20.019531 22.855469 18.324219 23.40625 16.410156 22.964844 14.738281 22.578125 12.925781 21.417969 11.027344 19.515625L9.25 17.742188C9.074219 17.566406 8.792969 17.566406 8.621094 17.742188 8.445312 17.914062 8.445312 18.195312 8.621094 18.371094L10.394531 20.144531C12.414062 22.164062 14.371094 23.40625 16.210938 23.832031 16.699219 23.941406 17.175781 24 17.644531 24 19.296875 24 20.835938 23.300781 22.226562 21.90625L23.355469 20.777344C24.039062 20.09375 24.195312 19.058594 23.742188 18.199219zM6.101562 15.851562C6.191406 15.941406 6.304688 15.984375 6.417969 15.984375 6.53125 15.984375 6.644531 15.941406 6.734375 15.851562 6.90625 15.679688 6.90625 15.398438 6.734375 15.222656L4.484375 12.972656C2.582031 11.074219 1.421875 9.261719 1.035156 7.589844.59375 5.675781 1.144531 3.980469 2.71875 2.402344L3.847656 1.273438C4.257812.867188 4.875.773438 5.382812 1.042969 6.847656 1.820312 8.609375 4.804688 8.625 4.828125 8.824219 5.179688 8.902344 5.546875 8.828125 5.808594 8.785156 5.96875 8.683594 6.089844 8.523438 6.179688L8.457031 6.226562C8.078125 6.542969 7.175781 7.308594 6.984375 7.585938 6.710938 7.988281 6.53125 8.386719 6.4375 8.773438 6.121094 8.140625 5.867188 7.410156 5.78125 6.601562 5.757812 6.355469 5.539062 6.183594 5.292969 6.203125 5.050781 6.230469 4.871094 6.449219 4.894531 6.695312 5.21875 9.789062 7.625 11.800781 7.726562 11.886719 7.738281 11.894531 7.75 11.898438 7.761719 11.90625L8.90625 13.050781C9.078125 13.222656 9.359375 13.222656 9.535156 13.050781 9.707031 12.875 9.707031 12.59375 9.535156 12.421875L8 10.886719C7.09375 9.976562 7.007812 9.140625 7.71875 8.089844 7.820312 7.949219 8.453125 7.386719 8.996094 6.933594 9.34375 6.726562 9.582031 6.421875 9.683594 6.046875 9.820312 5.554688 9.71875 4.949219 9.394531 4.386719 9.316406 4.253906 7.488281 1.152344 5.796875.257812 4.941406-.195312 3.90625-.0390625 3.21875.644531L2.089844 1.773438C.304688 3.558594-.339844 5.582031.167969 7.789062.59375 9.628906 1.832031 11.582031 3.855469 13.601562zM6.101562 15.851562"/>
</svg>

<svg xmlns="http://www.w3.org/2000/svg" width="32" height="32" viewBox="0 0 24 24">
    <path d="M19.418 5a.44.44 0 0 0-.629 0L.547 23.238A.448.448 0 0 0 .863 24a.429.429 0 0 0 .313-.133L19.418 5.63a.448.448 0 0 0 0-.629zm0 0M23.742 18.2c-.894-1.688-3.996-3.52-4.133-3.598-.566-.325-1.156-.426-1.656-.29-.375.106-.68.344-.887.688-.453.543-1.015 1.18-1.152 1.277-1.055.715-1.89.63-2.8-.28l-1.063-1.06a.44.44 0 0 0-.63 0 .448.448 0 0 0 0 .63l1.063 1.058.059.059c.016.023.027.046.047.066.086.086 2.094 2.035 5.16 2.352a7.835 7.835 0 0 1-2.375-1.578c.34-.102.687-.274 1.035-.512.281-.188 1.047-1.09 1.363-1.469l.047-.066c.09-.16.211-.262.371-.305.262-.074.63.004.973.2.836.487 3.148 2.026 3.793 3.245.27.508.176 1.125-.23 1.531l-1.13 1.13c-1.577 1.577-3.273 2.128-5.187 1.687-1.672-.387-3.484-1.547-5.383-3.45L9.25 17.743a.44.44 0 0 0-.629 0 .44.44 0 0 0 0 .63l1.774 1.773c2.02 2.02 3.976 3.261 5.816 3.687.488.11.965.168 1.434.168 1.652 0 3.19-.7 4.582-2.094l1.128-1.129c.684-.683.84-1.718.387-2.578zm0 0M6.102 15.852a.444.444 0 0 0 .632 0 .448.448 0 0 0 0-.63l-2.25-2.25c-1.902-1.898-3.062-3.71-3.449-5.382-.441-1.914.11-3.61 1.684-5.188l1.129-1.129c.41-.406 1.027-.5 1.535-.23 1.465.777 3.226 3.762 3.242 3.785.2.352.277.719.203.98a.593.593 0 0 1-.305.372l-.066.047c-.379.316-1.281 1.082-1.473 1.359-.273.402-.453.8-.546 1.187a6.365 6.365 0 0 1-.657-2.171.447.447 0 0 0-.488-.399.453.453 0 0 0-.398.492c.324 3.094 2.73 5.106 2.832 5.192.011.008.023.011.035.02l1.144 1.144a.448.448 0 0 0 .63 0 .448.448 0 0 0 0-.63L8 10.888c-.906-.91-.992-1.746-.281-2.797.101-.14.734-.703 1.277-1.156.348-.207.586-.512.688-.887.136-.492.035-1.098-.29-1.66-.078-.133-1.906-3.235-3.597-4.13a2.187 2.187 0 0 0-2.578.388l-1.13 1.128C.306 3.56-.34 5.582.169 7.79c.426 1.84 1.664 3.793 3.687 5.813zm0 0"/>
</svg>
